svgs/sharp-regular/compress.svg

<svg xmlns="http://www.w3.org/2000/svg" viewBox="0 0 448 512"><!--! Font Awesome Pro 6.6.0 by @fontawesome - https://fontawesome.com License - https://fontawesome.com/license (Commercial License) Copyright 2024 Fonticons, Inc. --><path d="M160 56l0-24-48 0 0 24 0 88-88 0L0 144l0 48 24 0 112 0 24 0 0-24 0-112zM24 320L0 320l0 48 24 0 88 0 0 88 0 24 48 0 0-24 0-112 0-24-24 0L24 320zM336 56l0-24-48 0 0 24 0 112 0 24 24 0 112 0 24 0 0-48-24 0-88 0 0-88zM312 320l-24 0 0 24 0 112 0 24 48 0 0-24 0-88 88 0 24 0 0-48-24 0-112 0z"/></svg>

<svg xmlns="http://www.w3.org/2000/svg" viewBox="0 0 448 512"><!--! Font Awesome Pro 6.4.2 by @fontawesome - https://fontawesome.com License - https://fontawesome.com/license (Commercial License) Copyright 2023 Fonticons, Inc. --><path d="M160 56V32H112V56v88H24 0v48H24 136h24V168 56zM24 320H0v48H24h88v88 24h48V456 344 320H136 24zM336 56V32H288V56 168v24h24H424h24V144H424 336V56zM312 320H288v24V456v24h48V456 368h88 24V320H424 312z"/></svg>
